X:4347
T:Montagnarde - L'émilienne (D. Champion)
O:england
S:Les Brayauds: Couleurs
M:3/8
L:1/16
K:C
c2cBcd|:e2G2G2|e2G2G2|def2d2|efedc2|\
e2G2G2|e2G2G2|ded2B2|1 c2cBcd:|2 c6||
|:def2g2|c2B2A2|fedfed|f2e2d2|\
def2g2|c2B2A2|fedfed|1 c6:|2 c2cBcd||


